_includes/icons/color-recycle.svg

<svg fill="#666" height="50" viewBox="0 0 48 48" width="50" xmlns="http://www.w3.org/2000/svg"><g fill="#2e7d32"><path d="m42.535156 23.789063c1.609375 3.585937-1.367187 7.132812-2.765625 7.160156h-3.484375l-5.234375-9.289063 7.71875-4.464843 3.703125 6.410156z"/><path d="m24.097656 8.277344-1.945312-2.261719h-2.09375c-1.6875-.027344-3.746094.570313-4.960938 2.304688l-.09375.152343-3.703125 6.410157 7.71875 4.46875 5.597657-9.152344z"/><path d="m15.402344 39.902344c-3.917969-.394531-5.632813-4.40625-4.964844-5.652344l1.578125-3.25h11.5625l-.578125 8.933594h-7.414062z"/></g><g fill="#4caf50"><path d="m39.46875 30.894531c1.0625-.03125 1.785156-.664062 2.6875-1.96875l-5.882812 9.898438c-.421875.941406-1 1.097656-1.609375 1.035156h-5.195313l-.03125 3.160156-4.375-7.597656 4.40625-7.683594v3.15625z"/><path d="m22.664063 7.195313c-.816407-1.308594-1.992188-1.179688-2.363282-1.179688h10.8125c1.03125-.097656 1.457032.300781 1.730469.878906l2.582031 4.496094 2.730469-1.578125-4.375 7.625-8.835937.03125 2.703125-1.578125z"/><path d="m10.660156 33.78125c-.511718.914063-.363281 1.785156.265625 3.046875l-5.550781-9.789062c-.578125-.855469-.425781-1.398438-.09375-1.917969l2.613281-4.492188-2.730468-1.613281h8.78125l4.464843 7.65625-2.734375-1.574219z"/></g></svg>

<svg xmlns="http://www.w3.org/2000/svg" viewBox="0 0 48 48" width="50" height="50" fill="#666"><path d="M 42.535156 23.789063 C 44.144531 27.375 41.167969 30.921875 39.769531 30.949219 L 36.285156 30.949219 L 31.050781 21.660156 L 38.769531 17.195313 L 42.472656 23.605469 Z" fill="#2e7d32"/><path d="M 24.097656 8.277344 L 22.152344 6.015625 L 20.058594 6.015625 C 18.371094 5.988281 16.3125 6.585938 15.097656 8.320313 L 15.003906 8.472656 L 11.300781 14.882813 L 19.019531 19.351563 L 24.617188 10.199219 Z" fill="#2e7d32"/><path d="M 15.402344 39.902344 C 11.484375 39.507813 9.769531 35.496094 10.4375 34.25 L 12.015625 31 L 23.578125 31 L 23 39.933594 L 15.585938 39.933594 Z" fill="#2e7d32"/><path d="M 39.46875 30.894531 C 40.53125 30.863281 41.253906 30.230469 42.15625 28.925781 L 36.273438 38.824219 C 35.851563 39.765625 35.273438 39.921875 34.664063 39.859375 L 29.46875 39.859375 L 29.4375 43.019531 L 25.0625 35.421875 L 29.46875 27.738281 L 29.46875 30.894531 Z" fill="#4caf50"/><path d="M 22.664063 7.195313 C 21.847656 5.886719 20.671875 6.015625 20.300781 6.015625 L 31.113281 6.015625 C 32.144531 5.917969 32.570313 6.316406 32.84375 6.894531 L 35.425781 11.390625 L 38.15625 9.8125 L 33.78125 17.4375 L 24.945313 17.46875 L 27.648438 15.890625 Z" fill="#4caf50"/><path d="M 10.660156 33.78125 C 10.148438 34.695313 10.296875 35.566406 10.925781 36.828125 L 5.375 27.039063 C 4.796875 26.183594 4.949219 25.640625 5.28125 25.121094 L 7.894531 20.628906 L 5.164063 19.015625 L 13.945313 19.015625 L 18.410156 26.671875 L 15.675781 25.097656 Z" fill="#4caf50"/></svg>
